X:054
T:Balance the Straw - Field Town
M:6/8
L:1/8
K:G
D | G2 B BAB | c2 A ABc | dBd cAc | B2 G G2 :||
B/2c/2 | d2 d d2 B | c2 B B2 A | e2 d dAB |
c2 B A2 D | G2 B BAB | c2A ABc | dBd cAc | B2 G G2 :||
